Numix-GalliumOS/scalable/status/battery-low-charging-symbolic.svg

<svg xmlns="http://www.w3.org/2000/svg" viewBox="0 0 16 16">
 <path d="m 5 0 l 0 2 l -3 0 l 0 14 l 12 0 l 0 -14 l -3 0 l 0 -2 l -6 0 z m 5 3 l -1 5 l 3 0 l -6 7 l 1 -5 l -3 0 l 6 -7 z" style="fill:#bebebe;opacity:0.4"/>
 <path d="m 2 10 l 0 6 l 12 0 l 0 -6 l -3.719 0 l -4.281 5 l 1 -5 l -3 0 l -2 0 z" style="fill:#bebebe"/>
</svg>

<svg xmlns="http://www.w3.org/2000/svg" width="16" viewBox="0 0 16 16" height="16">
 <path d="M 5 0 L 5 2 L 2 2 L 2 16 L 14 16 L 14 2 L 11 2 L 11 0 L 5 0 z M 10 3 L 9 8 L 12 8 L 6 15 L 7 10 L 4 10 L 10 3 z " opacity="0.6" fill="#bebebe"/>
 <path d="M 2 10 L 2 16 L 14 16 L 14 10 L 10.28125 10 L 6 15 L 7 10 L 4 10 L 2 10 z " fill="#bebebe"/>
</svg>
